X: 17
T:Rodney's Glory
% Nottingham Music Database
P:AABAB
S:O'Neill, via EF
M:4/4
L:1/4
K:C
P:A
e/2d/2|"C"cB/2c/2 "F"AA/2c/2|"G"B3/4c/4"D7"B/2A/2 "G7"Gc/2d/2|\
"C"ee/2d/2 "D7"c/2d/2e/2^f/2|"G"g/2e/2"D7"d/2c/2 "G7"de/2d/2|
"C"cB/2c/2 "F"AA/2c/2|"G"B3/4c/4"D7"B/2A/2 "G7"Ge/2d/2|\
"C"c"F"A "G"B3/4A/4"Em"G/2B/2|"Am"A3/4B/4"Dm"A/2G/2 "Am"A:|
P:B
d|"Am"e/2d/2"D7"e/2^f/2 "G"ge/2d/2|"C"c"G"d "C"c"Am"c/2d/2|\
"D7"e/2d/2e/2^f/2 "G"g/2=f/2e/2d/2|"D7"d/2c/2B/2A/2 "G"GB|
"Am"AA/2B/2 c"G7"d|"C"ee "F"a3/2b/2|"C"a/2g/2e/2d/2 "F"cA/2c/2|\
"G"B3/4c/4"D7"B/2A/2 "G7"Ge/2d/2|
"C"cB/2c/2 "F"AA/2c/2|"G"B3/4c/4"D7"B/2A/2 "G7"Ge/2d/2|\
"C"c"F"A "G"B3/4A/4"Em"G/2B/2|"Am"A3/4B/4"Dm"A/2G/2 "Am"A||<end>
<start>
